src/modules/toolbox/components/toolBar/assets/pdf-export.svg

<?xml version="1.0" encoding="UTF-8" standalone="no"?>
<svg
   width="16"
   height="16"
   fill="currentColor"
   version="1.1"
   id="svg8"
   xmlns="http://www.w3.org/2000/svg"
   xmlns:svg="http://www.w3.org/2000/svg">
  <defs
     id="defs12" />
  <path
     id="path6"
     d="M 3.8828125 0.31640625 L 2.7558594 1.2753906 L 2.7558594 6.4648438 L 13.630859 6.4648438 L 13.664062 4.0800781 L 9.6601562 0.36328125 L 3.8828125 0.31640625 z M 2.7578125 12.105469 L 2.7578125 14.050781 L 3.6191406 15.130859 L 12.681641 15.226562 L 13.519531 14.339844 L 13.550781 12.105469 L 2.7578125 12.105469 z "
     style="fill:#000000;fill-opacity:0.40000001" />
  <path
     id="path4"
     style="fill:#000000"
     d="M 4.0488281 0.3125 A 1.66 1.66 0 0 0 2.3847656 1.9765625 L 2.4121094 6.4921875 L 3.2441406 6.4921875 L 3.2167969 1.9765625 C 3.2137969 1.5165625 3.5978281 1.0545312 4.0488281 1.1445312 L 9.9199219 1.1679688 L 9.9199219 2.8320312 A 1.25 1.25 0 0 0 11.167969 4.0800781 L 12.830078 4.0800781 L 12.835938 6.4921875 L 13.669922 6.4921875 L 13.664062 4.0800781 L 9.9199219 0.3359375 L 4.0488281 0.3125 z M 2.4453125 12.115234 L 2.4550781 13.783203 C 2.4610781 14.702203 3.2001406 15.433266 4.1191406 15.447266 L 12.023438 15.568359 C 12.942438 15.582359 13.6905 14.823297 13.6875 13.904297 L 13.683594 12.115234 L 12.851562 12.115234 L 12.855469 13.904297 A 0.827 0.827 0 0 1 12.023438 14.736328 L 4.1191406 14.615234 A 0.84 0.84 0 0 1 3.2871094 13.783203 L 3.2773438 12.115234 L 2.4453125 12.115234 z " />
  <path
     id="path916"
     style="fill:#000000;fill-opacity:1;stroke:none;stroke-width:9.5068"
     d="M 2.593693,5.2244548 1.353304,6.4648438 V 12.098277 H 14.869333 V 6.4648438 l -1.238474,-1.240389 v 1.240389 H 2.593693 Z m -0.04977,1.8624977 h 1.584942 c 0.235209,0 0.458858,0.023923 0.671877,0.072739 0.21302,0.04438 0.399177,0.1238873 0.55894,0.2392725 0.159765,0.1109472 0.287726,0.2596124 0.380922,0.4460041 0.09764,0.1819534 0.145479,0.4088228 0.145479,0.6795341 0,0.2662732 -0.04785,0.4944472 -0.145479,0.6852762 -0.0932,0.19083 -0.221157,0.348543 -0.380922,0.472803 -0.159763,0.119823 -0.342702,0.209683 -0.551283,0.271814 -0.208581,0.0577 -0.426403,0.08805 -0.652736,0.08805 h -0.46706 v 1.370554 h -1.14468 z m 4.048492,0 h 1.276759 c 0.328404,0 0.628953,0.038796 0.899665,0.1186797 0.27515,0.079881 0.511066,0.2059298 0.706332,0.3790078 0.195268,0.1730777 0.345238,0.3954233 0.451747,0.6661346 0.110948,0.2707113 0.166534,0.5964868 0.166534,0.9781468 0,0.381657 -0.05428,0.710655 -0.160791,0.9858016 -0.106509,0.275151 -0.256479,0.50202 -0.451747,0.679535 C 9.290086,11.071774 9.061911,11.202346 8.795638,11.286664 8.533802,11.371004 8.246824,11.413 7.936171,11.413 H 6.592416 Z m 4.272451,0 h 2.823416 v 0.9570909 h -1.676823 v 0.826925 h 1.437548 v 0.957091 h -1.43755 V 11.413 H 10.864865 Z M 3.688603,7.9923597 v 1.1446797 h 0.413461 c 0.226333,0 0.393092,-0.05428 0.499602,-0.16079 C 4.712614,8.8697394 4.7682,8.7197694 4.7682,8.524502 4.7682,8.3292345 4.70809,8.1909209 4.588267,8.1110394 4.468444,8.0311544 4.297162,7.9923597 4.075266,7.9923597 Z m 4.048492,0.013403 v 2.4884363 h 0.067 c 0.155326,0 0.300772,-0.01809 0.438347,-0.0536 0.137575,-0.03994 0.254576,-0.105877 0.35221,-0.199078 0.102072,-0.0932 0.183494,-0.222464 0.241187,-0.3866666 0.05769,-0.164202 0.08614,-0.372977 0.08614,-0.625936 0,-0.25296 -0.02845,-0.458516 -0.08614,-0.6182804 C 8.778149,8.4508811 8.696723,8.326138 8.594652,8.2373797 8.497012,8.1486237 8.380017,8.0885125 8.242443,8.0574467 8.104868,8.0219407 7.959422,8.0057647 7.804096,8.0057647 Z" />
</svg><!--MIT License-->

<svg xmlns="http://www.w3.org/2000/svg" width="16" height="16" fill="currentColor"><path d="m3.883.316-1.127.96v5.189H13.63l.033-2.385L9.66.363zm-1.125 11.79v1.945l.861 1.08 9.063.096.838-.887.03-2.235z" style="fill:#000;fill-opacity:.40000001"/><path d="M4.049.313a1.66 1.66 0 0 0-1.664 1.664l.027 4.515h.832l-.027-4.515c-.003-.46.38-.922.832-.832l5.87.023v1.664a1.25 1.25 0 0 0 1.249 1.248h1.662l.006 2.412h.834l-.006-2.412L9.92.336zM2.445 12.115l.01 1.668c.006.92.745 1.65 1.664 1.664l7.904.121c.92.014 1.668-.745 1.665-1.664l-.004-1.789h-.832l.003 1.79a.827.827 0 0 1-.832.831l-7.904-.12a.84.84 0 0 1-.832-.833l-.01-1.668z" style="fill:#000"/><path d="m2.594 5.224-1.24 1.24v5.634h13.515V6.465l-1.238-1.24v1.24H2.594Zm-.05 1.863h1.585q.353 0 .672.073.32.066.559.239.24.166.38.446.147.273.146.68 0 .399-.145.685a1.3 1.3 0 0 1-.381.473q-.24.18-.552.271a2.4 2.4 0 0 1-.652.088h-.467v1.371H2.544zm4.048 0H7.87q.494 0 .9.119.412.12.706.379.292.26.452.666.165.405.166.978 0 .572-.16.986a1.76 1.76 0 0 1-.452.68q-.286.265-.685.392a2.8 2.8 0 0 1-.86.126H6.592Zm4.273 0h2.823v.957h-1.677v.827h1.438v.957h-1.438v1.585h-1.146Zm-7.176.905v1.145h.413q.34 0 .5-.16.165-.16.166-.452 0-.294-.18-.414t-.513-.119Zm4.048.014v2.488h.067q.232 0 .438-.053a.84.84 0 0 0 .353-.2.9.9 0 0 0 .24-.386q.088-.246.087-.626a1.9 1.9 0 0 0-.086-.618.9.9 0 0 0-.241-.374.76.76 0 0 0-.353-.18 1.8 1.8 0 0 0-.438-.051Z" style="fill:#000;fill-opacity:1;stroke:none;stroke-width:9.5068"/></svg><!--MIT License-->
